X: 24145
T: Looking At A Rainbow Through A Dirty Window
R: waltz
M: 3/4
K: Gmajor
DGA|:Bd B2 GA|F2 FG FD|E6-|E3 DGA|
Bd B2 GA|F2 FG FD|G6-|1 G3 DGA:|2 GA Bd gf||
|:e2 B2 gf|e2 c2 gf|ed ef ga|b2 ba gf|
e2 B2 gf|e2 c2 gf|ed ef ga|1 g4 gf:|2 g3||

